Dominus_Funeral/22/apps/pycharm.svg

<svg xmlns="http://www.w3.org/2000/svg" width="24" height="24" version="1"><defs><linearGradient id="a"><stop offset="0" stop-color="#040000"/><stop offset="1" stop-opacity="0"/></linearGradient></defs><path d="M1 1v22h22V1H1zm14.29 2.81l2.76 2.8-1.44 1.47L14.53 6v7.06l.49.47 1.58-1.55 1.4 1.38-2.87 2.83-2.5-2.53v-7.2l2.66-2.65zm-7.81.04h2.56L12.23 6v1.95l-3.53 3.5v2.21l.77.79-1.74 1.74-1.71-1.74.77-.79V6.2l-.84-.81 1.53-1.53zm1.12 1.4v3.77l1.92-1.89L8.6 5.24zm-1.5 12.2h9.8v1.9H7.1v-1.9z" fill="#1a1a1a"/></svg>

<?xml version="1.0" encoding="UTF-8" standalone="no"?>
<svg
   xmlns:dc="http://purl.org/dc/elements/1.1/"
   xmlns:cc="http://creativecommons.org/ns#"
   xmlns:rdf="http://www.w3.org/1999/02/22-rdf-syntax-ns#"
   xmlns:svg="http://www.w3.org/2000/svg"
   xmlns="http://www.w3.org/2000/svg"
   xmlns:sodipodi="http://sodipodi.sourceforge.net/DTD/sodipodi-0.dtd"
   xmlns:inkscape="http://www.inkscape.org/namespaces/inkscape"
   width="24"
   height="24"
   version="1"
   id="svg11"
   sodipodi:docname="pycharm.svg"
   inkscape:version="0.92.4 (5da689c313, 2019-01-14)">
  <metadata
     id="metadata15">
    <rdf:RDF>
      <cc:Work
         rdf:about="">
        <dc:format>image/svg+xml</dc:format>
        <dc:type
           rdf:resource="http://purl.org/dc/dcmitype/StillImage" />
        <dc:title></dc:title>
      </cc:Work>
    </rdf:RDF>
  </metadata>
  <sodipodi:namedview
     pagecolor="#ffffff"
     bordercolor="#666666"
     borderopacity="1"
     objecttolerance="10"
     gridtolerance="10"
     guidetolerance="10"
     inkscape:pageopacity="0"
     inkscape:pageshadow="2"
     inkscape:window-width="1138"
     inkscape:window-height="480"
     id="namedview13"
     showgrid="false"
     inkscape:zoom="9.8333333"
     inkscape:cx="1.0677966"
     inkscape:cy="12"
     inkscape:window-x="0"
     inkscape:window-y="25"
     inkscape:window-maximized="0"
     inkscape:current-layer="svg11" />
  <defs
     id="defs7">
    <linearGradient
       id="a">
      <stop
         offset="0"
         stop-color="#040000"
         id="stop2" />
      <stop
         offset="1"
         stop-opacity="0"
         id="stop4" />
    </linearGradient>
  </defs>
  <path
     d="M 1,1 V 23 H 23 V 1 Z M 15.29,3.81 18.05,6.61 16.61,8.08 14.53,6 v 7.06 l 0.49,0.47 1.58,-1.55 1.4,1.38 -2.87,2.83 -2.5,-2.53 V 6.46 Z M 7.48,3.85 h 2.56 L 12.23,6 v 1.95 l -3.53,3.5 v 2.21 L 9.47,14.45 7.73,16.19 6.02,14.45 6.79,13.66 V 6.2 L 5.95,5.39 7.48,3.86 Z M 8.6,5.25 V 9.02 L 10.52,7.13 8.6,5.24 Z m -1.5,12.2 h 9.8 v 1.9 H 7.1 Z"
     id="path9"
     inkscape:connector-curvature="0"
     style="fill:#1a1a1a" />
</svg>
